X: 8
T: King Of The Pipers
Z: jeff_lindqvist
S: https://thesession.org/tunes/54#setting46916
R: jig
M: 6/8
L: 1/8
K: Dmix
|:cAG A2d|DED AdB|cAG A2d|DED GED|
cAG A2d|DED AGE|FDF E^CE|DEF GED:|
K: Dmaj
|:d2e faf|ecA AFA|dcd efg|faf gfe|
dcd faf|ecA AGE|FDF E^CE|DEF GED:|
K: G
|:B2G AGA|BGE Edc|B2G AGE|GED Ddc|
B2G AGA|BGE EB^c|d^cd ABG|1 FDD dcd:|2 FAD DdB||

